src/icons/arrow-switch.svg

<svg xmlns="http://www.w3.org/2000/svg" width="24" height="24" fill="none"><path fill="currentColor" d="m16 10 1.5 1.5L22 7l-4.5-4.5L16 4l2 2H3v2h15zM8 20l-1.5 1.5L2 17l4.5-4.5L8 14l-2 2h15v2H6z"/></svg>

<svg width="24" height="24" viewBox="0 0 24 24" fill="none" xmlns="http://www.w3.org/2000/svg">
<path d="M16 10L17.5 11.5L22 7L17.5 2.5L16 4L18 6H3L3 8H18L16 10Z" fill="black"/>
<path d="M8 20L6.5 21.5L2 17L6.5 12.5L8 14L6 16H21V18H6L8 20Z" fill="black"/>
</svg>
